svg/icon/edo.svg

<svg xmlns="http://www.w3.org/2000/svg" xmlns:xlink="http://www.w3.org/1999/xlink" width="32" height="32" viewBox="0 0 32 32"><defs><linearGradient id="edo-c" x1="50%" x2="50%" y1="0%" y2="100%"><stop offset="0%" stop-color="#FFF" stop-opacity=".5"/><stop offset="100%" stop-opacity=".5"/></linearGradient><circle id="edo-b" cx="16" cy="15" r="15"/><filter id="edo-a" width="111.7%" height="111.7%" x="-5.8%" y="-4.2%" filterUnits="objectBoundingBox"><feOffset dy=".5" in="SourceAlpha" result="shadowOffsetOuter1"/><feGaussianBlur in="shadowOffsetOuter1" result="shadowBlurOuter1" stdDeviation=".5"/><feComposite in="shadowBlurOuter1" in2="SourceAlpha" operator="out" result="shadowBlurOuter1"/><feColorMatrix in="shadowBlurOuter1" values="0 0 0 0 0 0 0 0 0 0 0 0 0 0 0 0 0 0 0.199473505 0"/></filter><path id="edo-e" d="M13.059232,22.8742361 L15.7433477,20.1765337 L18.4365633,22.8742361 L16.7179533,24.5956376 C16.4596624,24.8545148 16.1089919,25 15.7432977,25 C15.3776034,25 15.0269329,24.8545148 14.768642,24.5956376 L13.059232,22.8742361 Z M20.0106725,13.631628 L17.3183568,10.9348256 L20.0106725,8.23802328 L22.7029882,10.9348256 L20.0106725,13.631628 Z M19.3414686,21.9952353 L16.6477529,19.297533 L23.877795,12.0559266 L25.596305,13.7774281 C26.134565,14.3170127 26.134565,15.1904453 25.596305,15.7300299 L19.3414686,21.9952353 Z M11.9382255,21.7169351 L9.24590985,19.0200327 L16.4641519,11.7898264 L19.1564675,14.4866288 L11.9382255,21.7169351 Z M8.11600327,17.9167318 L6.39749327,16.1953303 C5.86269969,15.6523113 5.86824624,14.7789116 6.40989334,14.2427285 L8.12820334,12.521227 L10.821419,15.2190294 L8.11600327,17.9167318 Z M18.8829659,7.12882231 L11.6534239,14.3674287 L8.95990818,11.6700263 L15.2150446,5.4043208 C15.4733486,5.14546819 15.8240142,5 16.1897003,5 C16.5553863,5 16.9060519,5.14546819 17.1643559,5.4043208 L18.8829659,7.12882231 Z"/><filter id="edo-d" width="117.5%" height="117.5%" x="-8.8%" y="-6.2%" filterUnits="objectBoundingBox"><feOffset dy=".5" in="SourceAlpha" result="shadowOffsetOuter1"/><feGaussianBlur in="shadowOffsetOuter1" result="shadowBlurOuter1" stdDeviation=".5"/><feColorMatrix in="shadowBlurOuter1" values="0 0 0 0 0 0 0 0 0 0 0 0 0 0 0 0 0 0 0.204257246 0"/></filter></defs><g fill="none" fill-rule="evenodd"><use fill="#000" filter="url(#edo-a)" xlink:href="#edo-b"/><use fill="#242424" xlink:href="#edo-b"/><use fill="url(#edo-c)" style="mix-blend-mode:soft-light" xlink:href="#edo-b"/><circle cx="16" cy="15" r="14.5" stroke="#000" stroke-opacity=".097"/><g fill-rule="nonzero"><use fill="#000" filter="url(#edo-d)" xlink:href="#edo-e"/><use fill="#FFF" fill-rule="evenodd" xlink:href="#edo-e"/></g></g></svg>

<svg xmlns="http://www.w3.org/2000/svg" xmlns:xlink="http://www.w3.org/1999/xlink" width="32" height="32" viewBox="0 0 32 32"><defs><linearGradient id="c" x1="50%" x2="50%" y1="0%" y2="100%"><stop offset="0%" stop-color="#FFF" stop-opacity=".5"/><stop offset="100%" stop-opacity=".5"/></linearGradient><circle id="b" cx="16" cy="15" r="15"/><filter id="a" width="111.7%" height="111.7%" x="-5.8%" y="-4.2%" filterUnits="objectBoundingBox"><feOffset dy=".5" in="SourceAlpha" result="shadowOffsetOuter1"/><feGaussianBlur in="shadowOffsetOuter1" result="shadowBlurOuter1" stdDeviation=".5"/><feComposite in="shadowBlurOuter1" in2="SourceAlpha" operator="out" result="shadowBlurOuter1"/><feColorMatrix in="shadowBlurOuter1" values="0 0 0 0 0 0 0 0 0 0 0 0 0 0 0 0 0 0 0.199473505 0"/></filter><path id="e" d="M13.06 22.874l2.683-2.697 2.694 2.697-1.719 1.722a1.377 1.377 0 0 1-1.95 0l-1.709-1.722zm6.95-9.242l-2.692-2.697 2.693-2.697 2.692 2.697-2.692 2.697zm-.669 8.363l-2.693-2.697 7.23-7.242 1.718 1.721c.539.54.539 1.413 0 1.953l-6.255 6.265zm-7.403-.278L9.246 19.02l7.218-7.23 2.692 2.697-7.218 7.23zm-3.822-3.8l-1.719-1.722a1.382 1.382 0 0 1 .013-1.952l1.718-1.722 2.693 2.698-2.705 2.698zM18.883 7.129l-7.23 7.238L8.96 11.67l6.255-6.266a1.377 1.377 0 0 1 1.95 0l1.718 1.725z"/><filter id="d" width="117.5%" height="117.5%" x="-8.8%" y="-6.2%" filterUnits="objectBoundingBox"><feOffset dy=".5" in="SourceAlpha" result="shadowOffsetOuter1"/><feGaussianBlur in="shadowOffsetOuter1" result="shadowBlurOuter1" stdDeviation=".5"/><feColorMatrix in="shadowBlurOuter1" values="0 0 0 0 0 0 0 0 0 0 0 0 0 0 0 0 0 0 0.204257246 0"/></filter></defs><g fill="none" fill-rule="evenodd"><use fill="#000" filter="url(#a)" xlink:href="#b"/><use fill="#242424" xlink:href="#b"/><use fill="url(#c)" style="mix-blend-mode:soft-light" xlink:href="#b"/><circle cx="16" cy="15" r="14.5" stroke="#000" stroke-opacity=".097"/><g fill-rule="nonzero"><use fill="#000" filter="url(#d)" xlink:href="#e"/><use fill="#FFF" fill-rule="evenodd" xlink:href="#e"/></g></g></svg>
